X:31
T:Follow Me Down
S:Trad, arr. Paddy O'Brien
Z:Set: Follow Me Down/Milliner's Daughter/Sailor's Jacket 
R:reel
E:9
I:speed 350
E:9
M:C|
K:ADor
G|ABAG EF~G2|AGAB ~c2ed|cABG EFGA|aged cAdc|\
ABAG EF~G2|AGAB ~c2ed|cABG EFGA|aged cAA:|\
d|ec~c2 ecgc|BG~G2 Bcd=f|ec~c2 eaaf|gedB cA~A2|\
agea gedB|cBcA EF~G2|AGAB cdef|1 gedB cA A:|2 ~g2fa gedc||**

